!!!OTL: ES WAREN ZWEI KOENIGSKINDER
!!!ARE: Europa, Mitteleuropa, Deutschland, Niederrhein; Bergisches Land
!!!SCT: E0084B
!!!YEM: Copyright 1995, estate of Helmut Schaffrath.
**kern
*ICvox
*Ivox
*M6/8
*k[b-e-]
*g:
{8b-
=1
8g
8g
8a
8b-
8a
8b-
=2
4g
8b-
4a}
{8b-
=3
8g
8g
8a
8cc
8b-
8a
=4
4g
8f#
4g}
{16g
16a
=5
8b-
8b-
8b-
8cc
8cc
8cc
=6
4.dd
4cc}
{8dd
=7
8b-
8a
8g
8f#
8g
8a
=8
2g
8r}
==
!!!AGN: erzaehlendes Volks - Lied, Sage, Liebe, Leid, Tod, Ballade ?
!!!ONB: ESAC (Essen Associative Code) Database: ERK1
!!!AMT: compound duple
!!!AIN: vox
!!!EED: Helmut Schaffrath
!!!EEV: 1.0
*-
